dist/img/svg/percentage.svg

<svg width="31" height="32" viewBox="0 0 31 32" xmlns="http://www.w3.org/2000/svg">
<path d="M25.7857 23.9643C25.7857 25.3705 24.6205 26.5357 23.2143 26.5357C21.808 26.5357 20.6429 25.3705 20.6429 23.9643C20.6429 22.558 21.808 21.3928 23.2143 21.3928C24.6205 21.3928 25.7857 22.558 25.7857 23.9643ZM10.3571 8.5357C10.3571 9.94195 9.19196 11.1071 7.78571 11.1071C6.37946 11.1071 5.21428 9.94195 5.21428 8.5357C5.21428 7.12945 6.37946 5.96427 7.78571 5.96427C9.19196 5.96427 10.3571 7.12945 10.3571 8.5357ZM30.9286 23.9643C30.9286 19.7053 27.4732 16.25 23.2143 16.25C18.9554 16.25 15.5 19.7053 15.5 23.9643C15.5 28.2232 18.9554 31.6786 23.2143 31.6786C27.4732 31.6786 30.9286 28.2232 30.9286 23.9643ZM29 2.10713C29 1.404 28.4174 0.821411 27.7143 0.821411H24.5C24.0982 0.821411 23.7165 1.0223 23.4754 1.34373L2.26116 29.6294C2.10044 29.8504 2 30.1116 2 30.3928C2 31.096 2.58259 31.6786 3.28571 31.6786H6.5C6.90178 31.6786 7.28348 31.4777 7.52455 31.1562L28.7388 2.87052C28.8996 2.64954 29 2.38838 29 2.10713ZM15.5 8.5357C15.5 4.27677 12.0446 0.821411 7.78571 0.821411C3.52678 0.821411 0.0714264 4.27677 0.0714264 8.5357C0.0714264 12.7946 3.52678 16.25 7.78571 16.25C12.0446 16.25 15.5 12.7946 15.5 8.5357Z" fill="white"/>
</svg>

<svg width="31" height="32" viewBox="0 0 31 32" xmlns="http://www.w3.org/2000/svg"><path d="M25.786 23.964a2.59 2.59 0 01-2.572 2.572 2.59 2.59 0 01-2.571-2.572 2.59 2.59 0 012.571-2.571 2.59 2.59 0 012.572 2.571zM10.357 8.536a2.59 2.59 0 01-2.571 2.571 2.59 2.59 0 01-2.572-2.571 2.59 2.59 0 012.572-2.572 2.59 2.59 0 012.571 2.572zM30.93 23.964a7.716 7.716 0 00-7.715-7.714 7.716 7.716 0 00-7.714 7.714 7.716 7.716 0 007.714 7.715 7.716 7.716 0 007.715-7.715zM29 2.107c0-.703-.583-1.286-1.286-1.286H24.5c-.402 0-.784.201-1.025.523L2.261 29.629c-.16.221-.261.483-.261.764 0 .703.583 1.286 1.286 1.286H6.5c.402 0 .783-.201 1.025-.523L28.739 2.871c.16-.221.261-.483.261-.764zM15.5 8.536A7.716 7.716 0 007.786.82 7.716 7.716 0 00.07 8.536a7.716 7.716 0 007.715 7.714A7.716 7.716 0 0015.5 8.536z" fill="#fff"/></svg>6 29.6294C2.10044 29.8504 2 30.1116 2 30.3928C2 31.096 2.58259 31.6786 3.28571 31.6786H6.5C6.90178 31.6786 7.28348 31.4777 7.52455 31.1562L28.7388 2.87052C28.8996 2.64954 29 2.38838 29 2.10713ZM15.5 8.5357C15.5 4.27677 12.0446 0.821411 7.78571 0.821411C3.52678 0.821411 0.0714264 4.27677 0.0714264 8.5357C0.0714264 12.7946 3.52678 16.25 7.78571 16.25C12.0446 16.25 15.5 12.7946 15.5 8.5357Z" fill="white"/>
</svg>
